assets/icons/24px/stroke/battery-horizontal-empty-24px.svg

<svg width="24" height="24" viewBox="0 0 24 24" fill="none" xmlns="http://www.w3.org/2000/svg">
<path fill-rule="evenodd" clip-rule="evenodd" d="M6.93417 6C6.95604 6 6.97799 6 7 6L15.0658 6C15.9523 5.99995 16.7161 5.99991 17.3278 6.08215C17.9833 6.17028 18.6117 6.36902 19.1213 6.87868C19.631 7.38835 19.8297 8.0167 19.9179 8.67221C20.0001 9.28388 20.0001 10.0477 20 10.9342V13.0658C20.0001 13.9523 20.0001 14.7161 19.9179 15.3278C19.8297 15.9833 19.631 16.6117 19.1213 17.1213C18.6117 17.631 17.9833 17.8297 17.3278 17.9179C16.7161 18.0001 15.9523 18.0001 15.0658 18H6.93417C6.04769 18.0001 5.28387 18.0001 4.67221 17.9179C4.0167 17.8297 3.38835 17.631 2.87868 17.1213C2.36902 16.6117 2.17028 15.9833 2.08215 15.3278C1.99991 14.7161 1.99995 13.9523 2 13.0658C2 13.044 2 13.022 2 13V11C2 10.978 2 10.956 2 10.9342C1.99995 10.0477 1.99991 9.28387 2.08215 8.67221C2.17028 8.0167 2.36902 7.38835 2.87868 6.87868C3.38835 6.36902 4.0167 6.17028 4.67221 6.08215C5.28387 5.99991 6.04769 5.99995 6.93417 6ZM4.93871 8.06431C4.50497 8.12263 4.36902 8.21677 4.2929 8.2929C4.21677 8.36902 4.12263 8.50497 4.06431 8.93871C4.00213 9.40121 4 10.0289 4 11V13C4 13.9711 4.00213 14.5988 4.06431 15.0613C4.12263 15.495 4.21677 15.631 4.2929 15.7071C4.36902 15.7832 4.50497 15.8774 4.93871 15.9357C5.40122 15.9979 6.02893 16 7 16H15C15.9711 16 16.5988 15.9979 17.0613 15.9357C17.495 15.8774 17.631 15.7832 17.7071 15.7071C17.7832 15.631 17.8774 15.495 17.9357 15.0613C17.9979 14.5988 18 13.9711 18 13V11C18 10.0289 17.9979 9.40122 17.9357 8.93871C17.8774 8.50497 17.7832 8.36902 17.7071 8.2929C17.631 8.21677 17.495 8.12263 17.0613 8.06431C16.5988 8.00213 15.9711 8 15 8H7C6.02893 8 5.40122 8.00213 4.93871 8.06431Z" fill="white"/>
<path d="M19 12.5V11.5C19 10.9477 19.4477 10.5 20 10.5C20.5523 10.5 21 10.9477 21 11.5V12.5C21 13.0523 20.5523 13.5 20 13.5C19.4477 13.5 19 13.0523 19 12.5Z" fill="white"/>
<path fill-rule="evenodd" clip-rule="evenodd" d="M18 11.5C18 10.3954 18.8954 9.5 20 9.5C21.1046 9.5 22 10.3954 22 11.5V12.5C22 13.6046 21.1046 14.5 20 14.5C18.8954 14.5 18 13.6046 18 12.5V11.5Z" fill="white"/>
</svg>

<svg width="24" height="24" fill="none" xmlns="http://www.w3.org/2000/svg"><path fill-rule="evenodd" clip-rule="evenodd" d="M6.934 6H15.066c.886 0 1.65 0 2.262.082.655.088 1.284.287 1.793.797.51.51.709 1.138.797 1.793.082.612.082 1.376.082 2.262v2.132c0 .886 0 1.65-.082 2.262-.088.655-.287 1.284-.797 1.793-.51.51-1.138.709-1.793.797-.612.082-1.376.082-2.262.082H6.934c-.886 0-1.65 0-2.262-.082-.655-.088-1.284-.287-1.793-.797-.51-.51-.709-1.138-.797-1.793C2 14.716 2 13.952 2 13.066V11v-.066c0-.886 0-1.65.082-2.262.088-.655.287-1.284.797-1.793.51-.51 1.138-.709 1.793-.797C5.284 6 6.048 6 6.934 6zM4.94 8.064c-.434.059-.57.153-.646.229-.076.076-.17.212-.229.646C4.002 9.4 4 10.029 4 11v2c0 .971.002 1.599.064 2.061.059.434.153.57.229.646.076.076.212.17.646.229C5.4 15.998 6.029 16 7 16h8c.971 0 1.599-.002 2.061-.064.434-.059.57-.153.646-.229.076-.076.17-.212.229-.646.062-.462.064-1.09.064-2.061v-2c0-.971-.002-1.599-.064-2.061-.059-.434-.153-.57-.229-.646-.076-.076-.212-.17-.646-.229C16.6 8.002 15.971 8 15 8H7c-.971 0-1.599.002-2.061.064z" fill="#fff"/><path d="M19 12.5v-1a1 1 0 1 1 2 0v1a1 1 0 1 1-2 0z" fill="#fff"/><path fill-rule="evenodd" clip-rule="evenodd" d="M18 11.5a2 2 0 1 1 4 0v1a2 2 0 1 1-4 0v-1z" fill="#fff"/></svg>
